app/images/euro.svg

<?xml version="1.0" encoding="utf-8"?><svg xmlns="http://www.w3.org/2000/svg" xmlns:xlink="http://www.w3.org/1999/xlink" version="1.1" class="page" pageAlignment="none" x="0px" y="0px" width="27.564px" height="32.016px" viewBox="0 0 27.564 32.016" enable-background="new 0 0 27.564 32.016" xml:space="preserve"><defs/><style type="text/css"/><style type="text/css"/><g type="LAYER" name="workspace" id="workspace" locked="true"/><g><g id="Euro-Sign_2_"><g id="Euro-Sign_1_"><path id="Euro-Sign" width="27.564999999999998" height="32.016" stroke-miterlimit="3" stroke="none" fill="#0F0202" d="M20.25,26.174 C16.377,26.174 13.488,24.652 11.862,22 L20,22 L20,18 L10.499,18 C10.413,17.379 10.361,16.733 10.361,16.054 C10.361,15.326999999999998 10.419,14.647999999999998 10.51,13.999999999999998 L20,13.999999999999998 L20,9.999999999999998 L11.87,9.999999999999998 C13.597,7.151999999999998 16.648,5.749999999999998 20.205,5.749999999999998 C22.733999999999998,5.749999999999998 24.712999999999997,6.301999999999998 26.092,6.899999999999999 L27.564999999999998,1.379999999999999 C26.322,0.736 23.563,0 19.928,0 C12.666,0 6.522,3.513 4.108,10 L0,10 L0,14 L3.157,14 C3.064,14.781 3,15.581 3,16.422 C3,16.956 3.022,17.482 3.063,18 L0,18 L0,22 L3.842,22 C5.748,27.962 10.92,32.016 19.238,32.016 C22.965,32.016 25.908,31.279999999999998 27.15,30.682 L26.137999999999998,25.162 C24.713,25.76 22.412,26.174 20.25,26.174 Z "/><g id="Shadow"><path width="4.5009999999999994" height="4" stroke-miterlimit="3" stroke="none" fill="#0F0202" d="M11,18 L10.499,18 C10.71,19.519 11.167,20.865000000000002 11.863000000000001,22 L15,22 L11,18 Z "/><path width="5.491000000000001" height="4" stroke-miterlimit="3" stroke="none" fill="#0F0202" d="M12,10 L11.87,10 C11.196,11.111 10.728,12.443 10.508999999999999,14 L16,14 L12,10 Z "/></g></g></g></g></svg>

<?xml version="1.0" ?><!DOCTYPE svg  PUBLIC '-//W3C//DTD SVG 1.0//EN'  'http://www.w3.org/TR/2001/REC-SVG-20010904/DTD/svg10.dtd'><svg enable-background="new 0 0 27.564 32.016" height="32.016" overflow="visible" viewBox="0 0 27.564 32.016" width="27.564" xml:space="preserve" xmlns="http://www.w3.org/2000/svg" xmlns:xlink="http://www.w3.org/1999/xlink"><g><g id="Euro-Sign_2_"><g id="Euro-Sign_1_"><path d="M20.25,26.174c-3.873,0-6.762-1.522-8.388-4.174H20v-4h-9.501        c-0.086-0.621-0.138-1.267-0.138-1.946c0-0.727,0.058-1.406,0.149-2.054H20v-4h-8.13c1.727-2.848,4.778-4.25,8.335-4.25        c2.529,0,4.508,0.552,5.887,1.15l1.473-5.52C26.322,0.736,23.563,0,19.928,0C12.666,0,6.522,3.513,4.108,10H0v4h3.157        C3.064,14.781,3,15.581,3,16.422c0,0.534,0.022,1.06,0.063,1.578H0v4h3.842c1.906,5.962,7.078,10.016,15.396,10.016        c3.727,0,6.67-0.736,7.912-1.334l-1.012-5.52C24.713,25.76,22.412,26.174,20.25,26.174z" fill="#5FCCFF" id="Euro-Sign"/><g id="Shadow"><path d="M11,18h-0.501c0.211,1.519,0.668,2.865,1.364,4H15L11,18z" fill="#51AED9"/><path d="M12,10h-0.13c-0.674,1.111-1.142,2.443-1.361,4H16L12,10z" fill="#51AED9"/></g></g></g></g></svg>
